X:108
T:RVW2/2/108 Cabin Boy
C:Mr. Garman, Ockley, Surrey, 25 May 1904
L:1/8
Q:1/4=100
M:2/4
I:linebreak $
K:G
"^(Editorial suggestion  " B>c | d2 dG | BA c>B | G3 (3d/e/f/ | gg a>g |$ g2 f>e | d3 (3d/e/f/ |: 
g2 =fe | d2 g=f | =fe dc |$ e3 e | d2 dG | BA cB |1 G3 (3d/e/f/ :|2 !fermata!G2 |] 



